X:1
T:The Well-Tempered Clavier Part II Praeludium II
T:BWV 871
T:J. S. Bach
%%score { ( 1 3 4 ) | 2 }
L:1/8
M:4/4
K:Eb
V:1 treble nm="Harp"
V:3 treble 
V:4 treble 
V:2 bass 
V:1
 z/ G/F/G/ A/F/E/F/ G/E/D/E/ F/D/C/D/ | EcFc EcD=B | C/E/G/c/ D/c/=B/=A/ D/G/B/d/ E/d/c/B/ | %3
 E/A/c/e/ F/e/d/c/ F/B/d/f/ G/f/e/d/ | e/c/B/c/ d/B/A/B/ c/B/A/G/ F/ z/ z | %5
 d/B/A/B/ c/A/G/A/ B/A/G/F/ E/ z/ z | c/A/G/A/ B/G/F/G/ A/F/E/F/ A/4G/4A/4G/4A | %7
 A/G/F/G/ A/4G/4A/4G/4A A/d/f/e/ d/c/B/A/ | G/B/e/G/ F/e/F/d/ e/B/A/B/ c/A/G/A/ | %9
 B/G/F/G/ A/F/E/F/ G/E/D/E/ CA | B,GA,F G,/B,/E/G/- G/F/E/D/ | E/G/c BA G4 | %12
 z/ G/F/G/ A/F/E/F/ G/E/D/E/ F/D/C/D/ | EcFc EcD=B | C/E/G/c/ D/c/=B/=A/ D/G/B/d/ E/d/c/B/ | %15
 E/A/c/e/ F/e/d/c/ F/B/d/f/ G/f/e/d/ | e/c/B/c/ d/B/A/B/ c/B/A/G/ F/ z/ z | %17
 d/B/A/B/ c/A/G/A/ B/A/G/F/ E/ z/ z | c/A/G/A/ B/G/F/G/ A/F/E/F/ A/4G/4A/4G/4A | %19
 A/G/F/G/ A/4G/4A/4G/4A A/d/f/e/ d/c/B/A/ | G/B/e/G/ F/e/F/d/ e/B/A/B/ c/A/G/A/ | %21
 B/G/F/G/ A/F/E/F/ G/E/D/E/ CA | B,GA,F G,/B,/E/G/- G/F/E/D/ | E/G/c BA G4 | %24
 z/ B/=A/B/ e/B/A/B/ f/B/A/B/ a/B/A/B/ | ge d/4c/4=B/c fd c/4B/4=A/B | %26
 e/E/D/E/ G/E/D/E/ B/E/D/E/ _d/E/D/E/ | cA G/4F/4=E/F BG F/4E/4D/E | %28
 A/c/=B/c/ _d/c/B/c/ G/c/B/c/ d/c/B/c/ | F/c/d/=e/ f/B/=A/B/ g/f/e/d/ c/B/_A/G/ | %30
 A/F/=E/F/ c/A/G/A/ f/e/_d/c/ B/A/G/F/ | G/E/D/E/ B/G/F/G/ e/_d/c/B/ A/G/F/=E/ | F=ABc _d=efg | %33
 c/=e/f/a/ B/g/f/e/ A/c/e/f/ G/_d/c/B/ | A/G/F/=E/ F/A/C/_E/ D/A/F/D/ B,/ z/ z | %35
 G/F/E/D/ E/G/=B,/D/ C/G/E/C/ A,/ z/ z | F/E/D/C/ D/F/A/C/ =B,/F/D/B,/ G,/B,/C/D/ | %37
 z G c4- c/c/B/A/ | G/A/B/G/ C/_d/c/B/ A/B/c/A/ D/e/=d/c/ | =B/G/c/d/ ed !fermata!c4 | %40
 z/ B/=A/B/ e/B/A/B/ f/B/A/B/ a/B/A/B/ | ge d/4c/4=B/c fd c/4B/4=A/B | %42
 e/E/D/E/ G/E/D/E/ B/E/D/E/ _d/E/D/E/ | cA G/4F/4=E/F BG F/4E/4D/E | %44
 A/c/=B/c/ _d/c/B/c/ G/c/B/c/ d/c/B/c/ | F/c/d/=e/ f/B/=A/B/ g/f/e/d/ c/B/_A/G/ | %46
 A/F/=E/F/ c/A/G/A/ f/e/_d/c/ B/A/G/F/ | G/E/D/E/ B/G/F/G/ e/_d/c/B/ A/G/F/=E/ | F=ABc _d=efg | %49
 c/=e/f/a/ B/g/f/e/ A/c/e/f/ G/_d/c/B/ | A/G/F/=E/ F/A/C/_E/ D/A/F/D/ B,/ z/ z | %51
 G/F/E/D/ E/G/=B,/D/ C/G/E/C/ A,/ z/ z | F/E/D/C/ D/F/A/C/ =B,/F/D/B,/ G,/B,/C/D/ | %53
 z G c4- c/c/B/A/ | G/A/B/G/ C/_d/c/B/ A/B/c/A/ D/e/=d/c/ | =B/G/c/d/ ed !fermata!c4 |] %56
V:2
 C,CF,C E,CD,=B, | C,/G,/F,/G,/ A,/F,/E,/F,/ G,/E,/D,/E,/ F,/D,/C,/D,/ | E,C,F,D, G,F,G,E, | %3
 A,G,=A,F, B,A,=B,G, | %4
 C/[I:staff -1]A/G/A/[I:staff +1] B,/[I:staff -1]G/F/G/[I:staff +1] A, z/ z[I:staff -1] E/D/C/ | %5
[I:staff +1] B,/[I:staff -1]G/F/G/[I:staff +1] A,/[I:staff -1]F/E/F/[I:staff +1] G, z/ z[I:staff -1] _D/C/B,/ | %6
[I:staff +1] A,/[I:staff -1]F/E/F/[I:staff +1] G,/[I:staff -1]E/D/E/[I:staff +1] F,/[I:staff -1]D/C/D/[I:staff +1] E,/C/B,/C/ | %7
 D,/B,/A,/B,/ C,/A,/G,/A,/ B,,B, z D, | E,C,A,,B,, E,,E,A,,E, | %9
 G,,E,F,,D, E,/G,/F,/G,/ A,/F,/E,/F,/ | G,/E,/D,/E,/ F,/D,/C,/D,/ E,G,A,B, | %11
 CA,B,B,, z/ E,/B,,/G,,/ E,,2 | C,CF,C E,CD,=B, | %13
 C,/G,/F,/G,/ A,/F,/E,/F,/ G,/E,/D,/E,/ F,/D,/C,/D,/ | E,C,F,D, G,F,G,E, | A,G,=A,F, B,A,=B,G, | %16
 C/[I:staff -1]A/G/A/[I:staff +1] B,/[I:staff -1]G/F/G/[I:staff +1] A, z/ z[I:staff -1] E/D/C/ | %17
[I:staff +1] B,/[I:staff -1]G/F/G/[I:staff +1] A,/[I:staff -1]F/E/F/[I:staff +1] G, z/ z[I:staff -1] _D/C/B,/ | %18
[I:staff +1] A,/[I:staff -1]F/E/F/[I:staff +1] G,/[I:staff -1]E/D/E/[I:staff +1] F,/[I:staff -1]D/C/D/[I:staff +1] E,/C/B,/C/ | %19
 D,/B,/A,/B,/ C,/A,/G,/A,/ B,,B, z D, | E,C,A,,B,, E,,E,A,,E, | %21
 G,,E,F,,D, E,/G,/F,/G,/ A,/F,/E,/F,/ | G,/E,/D,/E,/ F,/D,/C,/D,/ E,G,A,B, | %23
 CA,B,B,, z/ E,/B,,/G,,/ E,,2 | E,F,G,E, D,C,D,B,, | %25
 E,/G,/A,/G,/ A,,/G,/A,/G,/ D,/F,/G,/F,/ G,,/F,/G,/F,/ | C,CB,A, G,F,G,E, | %27
 A,/C/_D/C/ _D,/C/D/C/ G,/B,/C/B,/ C,/B,/C/B,/ | F,A,F,_D =E,G,_E,C | D,F,_D,B, C,=D,=E,C, | %30
 F,/A,/G,/A,/ E,/C/B,/C/ _D,F,B,_D | E,/G,/F,/G,/ _D,/B,/A,/B,/ C,E,A,C | %32
 _D,/F,/E,/F,/ _G,/F,/E,/F,/ B,,/F,/=G,/A,/ G,/F,/=E,/F,/ | A,,F,,C,C,, F,,A,,B,,C, | %34
 F,G,A,F, B,B,, z/ A,/G,/F,/ | E,F,G,E, A,A,, z/ G,/F,/E,/ | D,E,F,D, G,G,, z/ F,/E,/D,/ | %37
 C,/D,/E,/C,/ A,,/G,/F,/E,/ D,/E,/F,/D,/ B,,/A,/G,/F,/ | E,D,E,=E, F,E,F,^F, | %39
 G,/F,/E,/F,/ G,G,, C,,/C,/E,/G,/ !fermata!C2 | E,F,G,E, D,C,D,B,, | %41
 E,/G,/A,/G,/ A,,/G,/A,/G,/ D,/F,/G,/F,/ G,,/F,/G,/F,/ | C,CB,A, G,F,G,E, | %43
 A,/C/_D/C/ _D,/C/D/C/ G,/B,/C/B,/ C,/B,/C/B,/ | F,A,F,_D =E,G,_E,C | D,F,_D,B, C,=D,=E,C, | %46
 F,/A,/G,/A,/ E,/C/B,/C/ _D,F,B,_D | E,/G,/F,/G,/ _D,/B,/A,/B,/ C,E,A,C | %48
 _D,/F,/E,/F,/ _G,/F,/E,/F,/ B,,/F,/=G,/A,/ G,/F,/=E,/F,/ | A,,F,,C,C,, F,,A,,B,,C, | %50
 F,G,A,F, B,B,, z/ A,/G,/F,/ | E,F,G,E, A,A,, z/ G,/F,/E,/ | D,E,F,D, G,G,, z/ F,/E,/D,/ | %53
 C,/D,/E,/C,/ A,,/G,/F,/E,/ D,/E,/F,/D,/ B,,/A,/G,/F,/ | E,D,E,=E, F,E,F,^F, | %55
 G,/F,/E,/F,/ G,G,, C,,/C,/E,/G,/ !fermata!C2 |] %56
V:3
 x8 | x8 | x8 | x8 | x8 | x8 | x8 | x8 | x8 | x8 | x8 | E2- E/ED/ B,4 | x8 | x8 | x8 | x8 | x8 | %17
 x8 | x8 | x8 | x8 | x8 | x8 | E2- E/ED/ B,4 | x8 | x8 | x8 | x8 | x8 | x8 | x8 | x8 | x8 | x8 | %34
 x8 | x8 | x8 | E2 E/B/A/G/ F/G/A/F/ D z | x8 | z c- c=B G4 | x8 | x8 | x8 | x8 | x8 | x8 | x8 | %47
 x8 | x8 | x8 | x8 | x8 | x8 | E2 E/B/A/G/ F/G/A/F/ D z | x8 | z c- c=B G4 |] %56
V:4
 x8 | x8 | x8 | x8 | x8 | x8 | x8 | x8 | x8 | x8 | x8 | z c/F/ GF E4 | x8 | x8 | x8 | x8 | x8 | %17
 x8 | x8 | x8 | x8 | x8 | x8 | z c/F/ GF E4 | x8 | x8 | x8 | x8 | x8 | x8 | x8 | x8 | x8 | x8 | %34
 x8 | x8 | x8 | x8 | x8 | z2 z/ GF/ E4 | x8 | x8 | x8 | x8 | x8 | x8 | x8 | x8 | x8 | x8 | x8 | %51
 x8 | x8 | x8 | x8 | z2 z/ GF/ E4 |] %56

